svgs/camera.svg

<?xml version="1.0" encoding="UTF-8"?><svg id="a" xmlns="http://www.w3.org/2000/svg" viewBox="0 0 24 24"><path d="M12,9.62002c-.76365,0-1.49672,.30372-2.03626,.84372-.54001,.53954-.84372,1.27261-.84372,2.03626s.30372,1.49672,.84372,2.03626c.53954,.54001,1.27261,.84372,2.03626,.84372s1.49672-.30372,2.03626-.84372c.54001-.53954,.84372-1.27261,.84372-2.03626s-.30372-1.49672-.84372-2.03626c-.53954-.54001-1.27261-.84372-2.03626-.84372Z"/><path d="M19.20003,5.29997h-2.85302l-1.64698-1.79997h-5.40005l-1.64698,1.79997h-2.85302c-.99445,0-1.79997,.80553-1.79997,1.80004v10.79997c0,.99451,.80553,1.80004,1.79997,1.80004h14.40005c.99445,0,1.79997-.80553,1.79997-1.80004V7.10001c0-.99451-.80553-1.80004-1.79997-1.80004Zm-7.20003,11.70003c-2.48401,0-4.5-2.01599-4.5-4.5s2.01599-4.5,4.5-4.5,4.5,2.01599,4.5,4.5-2.01599,4.5-4.5,4.5Zm6.30238-8.14015c-.45397,0-.82205-.36808-.82205-.82205,0-.45404,.36808-.82205,.82205-.82205s.82205,.36801,.82205,.82205c0,.45397-.36808,.82205-.82205,.82205Z"/></svg>

<svg xmlns="http://www.w3.org/2000/svg" viewBox="0 0 24 24"><path d="M12 9.62a2.88 2.88 0 1 0 0 5.759 2.88 2.88 0 0 0 0-5.759z"/><path d="M19.2 5.3h-2.853L14.7 3.5H9.3L7.653 5.3H4.8A1.8 1.8 0 0 0 3 7.1v10.8a1.8 1.8 0 0 0 1.8 1.8h14.4a1.8 1.8 0 0 0 1.8-1.8V7.1a1.8 1.8 0 0 0-1.8-1.8zM12 17c-2.484 0-4.5-2.016-4.5-4.5S9.516 8 12 8s4.5 2.016 4.5 4.5S14.484 17 12 17zm6.302-8.14a.822.822 0 1 1 0-1.644.822.822 0 0 1 0 1.644z"/></svg>
